icon-svg/echo-show-5-group.svg

<svg xmlns="http://www.w3.org/2000/svg" fill="#44739e" viewBox="0 0 24 24"><path d="M17.494 9.269a.413.413 0 0 0-.412-.392H6.8a.414.414 0 0 0-.412.388L6.011 15.7a.414.414 0 0 0 .412.436H17.4a.415.415 0 0 0 .413-.433zm-.417 5.889a.494.494 0 0 1-.494.508H7.06a.5.5 0 0 1-.494-.518l.25-5.322a.5.5 0 0 1 .493-.472l9.123-.013a.5.5 0 0 1 .5.481zM6.8 8.677h2.014a4.3 4.3 0 0 0-1.945-.869 4.06 4.06 0 0 0-.915-.019c-3.263.325-4.5 4.235-3.506 5.969.692 1.205 2.166 1.365 3.405 1.227l.332-5.731a.613.613 0 0 1 .615-.577m10.893.582.282 5.731c1.27.17 2.852.051 3.577-1.21.994-1.734-.244-5.643-3.508-5.969a3.93 3.93 0 0 0-1.415.118 4.31 4.31 0 0 0-1.413.748h1.866a.611.611 0 0 1 .611.582m.024 6.969a10.16 10.16 0 0 0 2.332-.251c.1-.019.291-.338.291-.338a12.5 12.5 0 0 1-2.362.261.616.616 0 0 1-.136.241.6.6 0 0 1-.125.087m-11.879-.361a12.6 12.6 0 0 1-2.18-.252 2.3 2.3 0 0 0 .164.229.314.314 0 0 0 .128.108h.009a10.07 10.07 0 0 0 2.091.238.6.6 0 0 1-.072-.051.606.606 0 0 1-.14-.272m12.169-.161h.067a8.63 8.63 0 0 0 2.561-.345 5.84 5.84 0 0 0 .733-1.076 3.43 3.43 0 0 1-3.064.93c-.108-.007-.212-.038-.32-.051l.026.523c0 .007-.003.013-.003.019m-12.313-.512a3.431 3.431 0 0 1-3.061-.931 5.9 5.9 0 0 0 .732 1.077 8.66 8.66 0 0 0 2.447.339l.03-.505c-.05.004-.098.017-.148.02"/></svg>

<?xml version="1.0" encoding="UTF-8"?>
<svg width="24px" fill="#44739e" height="24px" viewBox="0 0 24 24" version="1.1" xmlns="http://www.w3.org/2000/svg" xmlns:xlink="http://www.w3.org/1999/xlink">
            <path d="M 17.494,9.269 A 0.413,0.413 0 0 0 17.082,8.877 H 6.8 A 0.414,0.414 0 0 0 6.388,9.265 L 6.011,15.7 a 0.414,0.414 0 0 0 0.412,0.436 H 17.4 a 0.415,0.415 0 0 0 0.413,-0.433 z m -0.417,5.889 a 0.494,0.494 0 0 1 -0.494,0.508 H 7.06 A 0.5,0.5 0 0 1 6.566,15.148 L 6.816,9.826 A 0.5,0.5 0 0 1 7.309,9.354 l 9.123,-0.013 a 0.5,0.5 0 0 1 0.5,0.481 z M 6.8,8.677 H 8.814 A 4.3,4.3 0 0 0 6.869,7.808 4.058,4.058 0 0 0 5.954,7.789 c -3.263,0.325 -4.5,4.235 -3.506,5.969 0.692,1.205 2.166,1.365 3.405,1.227 L 6.185,9.254 A 0.613,0.613 0 0 1 6.8,8.677 Z m 10.893,0.582 0.282,5.731 c 1.27,0.17 2.852,0.051 3.577,-1.21 0.994,-1.734 -0.244,-5.643 -3.508,-5.969 a 3.925,3.925 0 0 0 -1.415,0.118 4.308,4.308 0 0 0 -1.413,0.748 h 1.866 a 0.611,0.611 0 0 1 0.611,0.582 z m 0.024,6.969 a 10.165,10.165 0 0 0 2.332,-0.251 c 0.1,-0.019 0.291,-0.338 0.291,-0.338 a 12.5,12.5 0 0 1 -2.362,0.261 0.616,0.616 0 0 1 -0.136,0.241 0.6,0.6 0 0 1 -0.125,0.087 z M 5.838,15.867 a 12.588,12.588 0 0 1 -2.18,-0.252 2.323,2.323 0 0 0 0.164,0.229 0.314,0.314 0 0 0 0.128,0.108 H 3.959 A 10.071,10.071 0 0 0 6.05,16.19 0.621,0.621 0 0 1 5.978,16.139 0.606,0.606 0 0 1 5.838,15.867 Z m 12.169,-0.161 c 0.022,0 0.045,0 0.067,0 a 8.631,8.631 0 0 0 2.561,-0.345 5.838,5.838 0 0 0 0.733,-1.076 3.43,3.43 0 0 1 -3.064,0.93 c -0.108,-0.007 -0.212,-0.038 -0.32,-0.051 l 0.026,0.523 c 0,0.007 -0.003,0.013 -0.003,0.019 z M 5.694,15.194 a 3.431,3.431 0 0 1 -3.061,-0.931 5.891,5.891 0 0 0 0.732,1.077 8.657,8.657 0 0 0 2.447,0.339 l 0.03,-0.505 c -0.05,0.004 -0.098,0.017 -0.148,0.02 z"/>

</svg>
